!!!OTL: DER GOTT DER EISEN WACHSEN LIESS
!!!ARE: Europa, Mitteleuropa, Deutschland
!!!SCT: F0385
!!!YEM: Copyright 1995, estate of Helmut Schaffrath.
**kern
*ICvox
*Ivox
*M4/4
*k[b-e-a-]
*E-:
{4b-
=1
4.ee-
8e-
4g
4e-
=2
4.cc
8cc
4cc}
{4cc
=3
4.b-
8a-
4g
4f
=4
4g
4e-
4r}
{4b-
=5
4.ee-
8e-
4g
4e-
=6
4.cc
8cc
4cc}
{4ff
=7
4.dd
8cc
4b-
4cc
=8
4dd
4b-
4r}
{4b-
=9
4.b-
8b-
4.cc
8cc
=10
4.dd
8dd
4.ee-}
{8b-
=11
4.aa-
8ff
4gg
4ee-
=12
8.dd
16ee-
4ff
4r}
{4b-
=13
4.gg
8ff
4ee-
4dd
=14
4cc
4b-
4a-}
{4g
=15
4f
4cc
4b-
4a-
=16
2g
2f
=17
4e-
2r}
==
!!!AGN: Vaterlands -, Heimat - Lied, nationalistisch, Krieg
!!!ONB: ESAC (Essen Associative Code) Database: FINK
!!!AMT: simple quadruple
!!!AIN: vox
!!!EED: Helmut Schaffrath
!!!EEV: 1.0
*-
